packages/core/src/svgs/mntl.svg

<svg width="24" height="24" viewBox="0 0 24 24" fill="none" xmlns="http://www.w3.org/2000/svg">
<g clip-path="url(#clip0_31_14094)">
<path d="M0 0H24V24H0V0Z" fill="#FCBE33"/>
<path d="M15.0001 16.7145C15.3411 16.7145 15.6681 16.579 15.9092 16.3379C16.1503 16.0968 16.2858 15.7698 16.2858 15.4288C16.2858 15.0878 16.1503 14.7608 15.9092 14.5196C15.6681 14.2785 15.3411 14.1431 15.0001 14.1431C14.6591 14.1431 14.3321 14.2785 14.0909 14.5196C13.8498 14.7608 13.7144 15.0878 13.7144 15.4288C13.7144 15.7698 13.8498 16.0968 14.0909 16.3379C14.3321 16.579 14.6591 16.7145 15.0001 16.7145Z" fill="#0D0A03"/>
<path d="M19.7143 8.39979V15.5998C19.711 15.9826 19.5667 16.3508 19.3089 16.6339C19.0512 16.917 18.698 17.0951 18.3172 17.1341C17.3658 17.2241 16.7229 16.5041 16.7143 15.5998V14.4255C16.7143 14.0998 16.5258 13.7826 16.3286 13.5255C16.1839 13.3316 15.9956 13.1744 15.779 13.0667C15.5623 12.959 15.3234 12.9037 15.0814 12.9054C14.8395 12.907 14.6013 12.9656 14.3862 13.0763C14.171 13.187 13.9849 13.3467 13.8429 13.5426L13.0415 14.6655L11.7515 16.4784C11.5012 16.7786 11.1463 16.9727 10.7584 17.0214C10.3706 17.0701 9.97874 16.9697 9.66203 16.7406C9.34532 16.5115 9.12737 16.1708 9.05222 15.7872C8.97707 15.4036 9.05033 15.0057 9.25718 14.6741L14.3915 7.47408C14.5334 7.28476 14.717 7.13063 14.9281 7.02362C15.1392 6.91661 15.372 6.85957 15.6086 6.85693H18.1758C18.5842 6.85807 18.9755 7.02112 19.2639 7.31034C19.5524 7.59956 19.7143 7.99134 19.7143 8.39979Z" fill="#FFFDFA"/>
<path d="M5.8285 6.85693H10.9714C11.2547 6.85703 11.5325 6.93514 11.7744 7.0827C12.0163 7.23026 12.2128 7.44157 12.3425 7.69346C12.4722 7.94535 12.5301 8.2281 12.5097 8.51069C12.4893 8.79329 12.3916 9.06481 12.2271 9.29551L7.08422 16.4955C6.89452 16.7612 6.62541 16.9599 6.31562 17.063C6.00583 17.1661 5.67132 17.1683 5.36023 17.0692C5.04914 16.9701 4.7775 16.7748 4.5844 16.5116C4.3913 16.2483 4.2867 15.9306 4.28564 15.6041V8.39979C4.28564 7.9906 4.4482 7.59817 4.73754 7.30883C5.02688 7.01948 5.41931 6.85693 5.8285 6.85693ZM6.64279 10.7141C6.92695 10.7141 7.19947 10.6012 7.4004 10.4003C7.60133 10.1993 7.71422 9.92681 7.71422 9.64265C7.71422 9.35849 7.60133 9.08597 7.4004 8.88503C7.19947 8.6841 6.92695 8.57122 6.64279 8.57122C6.35863 8.57122 6.0861 8.6841 5.88517 8.88503C5.68424 9.08597 5.57136 9.35849 5.57136 9.64265C5.57136 9.92681 5.68424 10.1993 5.88517 10.4003C6.0861 10.6012 6.35863 10.7141 6.64279 10.7141Z" fill="#0D0A03"/>
</g>
<defs>
<clipPath id="clip0_31_14094">
<rect width="24" height="24" fill="white"/>
</clipPath>
</defs>
</svg>

<svg xmlns="http://www.w3.org/2000/svg" width="24" height="24" fill="none" viewBox="0 0 24 24"><g clip-path="url(#a)"><path fill="#FCBE33" d="M0 0h24v24H0z"/><path fill="#0D0A03" d="M15 16.715a1.286 1.286 0 1 0 0-2.572 1.286 1.286 0 0 0 0 2.572"/><path fill="#FFFDFA" d="M19.714 8.4v7.2a1.556 1.556 0 0 1-1.397 1.534c-.951.09-1.594-.63-1.603-1.534v-1.174c0-.326-.188-.643-.385-.9a1.543 1.543 0 0 0-2.486.017l-.802 1.123-1.29 1.812a1.543 1.543 0 0 1-2.494-1.804l5.135-7.2a1.54 1.54 0 0 1 1.217-.617h2.567A1.543 1.543 0 0 1 19.714 8.4"/><path fill="#0D0A03" d="M5.829 6.857h5.142a1.543 1.543 0 0 1 1.256 2.439l-5.143 7.2a1.543 1.543 0 0 1-2.798-.892V8.4a1.543 1.543 0 0 1 1.543-1.543m.814 3.857a1.072 1.072 0 1 0 0-2.143 1.072 1.072 0 0 0 0 2.143"/></g><defs><clipPath id="a"><path fill="#fff" d="M0 0h24v24H0z"/></clipPath></defs></svg>
